X:2461
T:Happy A Jig
O:england
M:6/8
L:1/8
R:Jig
D:Buttons and Bows (GL 1051)
K:A
a|age dce|AAA c2 d|edc dBA|GEE dcB|A2 A AGA|B2 e gab|age dce|ABA A2:|
c/2d/2|e2 a aga|b2 e gab|age d3|dBA GAB|cea aga|
b2 e gab|age dce|ABA A2:||
